X:260
T: Des Abends in der Stille (3-62), S. 179
N: P1035
O: Lothringen
S: PINCK, Louis: Verklingende Weisen, Bd3, Metz 1933]
R: Werbung, Treue?]
M: 4/4
L: 1/8
K: F
C2 | F3GA2B2 | c3dc2
c2 | B3AB2c2 | A4z2
C2 | F3GA2B2 | c3dc2
c2 | B3AB2c2 | A4z2
cd | c2A2GGB2 | A2c2A2
cd | c2A2GGB2 | A2c2A2
Ac | d3cB2cB | A4z2

@@@ Tune index: 7810
